svg/fluentui-system-icons/ic_fluent_book_open_20_regular.svg

<svg width="20" height="20" viewBox="0 0 20 20" fill="none" xmlns="http://www.w3.org/2000/svg">
<path d="M10 16.0002C9.54389 16.6073 8.8178 17 8 17H3.5C2.67157 17 2 16.3284 2 15.5V4.5C2 3.67157 2.67157 3 3.5 3H8C8.8178 3 9.54389 3.39267 10 3.99976C10.4561 3.39267 11.1822 3 12 3H16.5C17.3284 3 18 3.67157 18 4.5L18 15.5C18 16.3284 17.3284 17 16.5 17L12 17C11.1822 17 10.4561 16.6073 10 16.0002ZM3 4.5V15.5C3 15.7761 3.22386 16 3.5 16H8C8.82843 16 9.5 15.3284 9.5 14.5V5.5C9.5 4.67157 8.82843 4 8 4H3.5C3.22386 4 3 4.22386 3 4.5ZM10.5 14.5C10.5 15.3284 11.1716 16 12 16L16.5 16C16.7761 16 17 15.7761 17 15.5L17 4.5C17 4.22386 16.7761 4 16.5 4L12 4C11.1716 4 10.5 4.67157 10.5 5.5V14.5Z" fill="#212121"/>
</svg>

<svg xmlns="http://www.w3.org/2000/svg" width="20" height="20"><path d="M10 16c-.456.607-1.182 1-2 1H3.5A1.5 1.5 0 0 1 2 15.5v-11A1.5 1.5 0 0 1 3.5 3H8c.818 0 1.544.393 2 1 .456-.607 1.182-1 2-1h4.5A1.5 1.5 0 0 1 18 4.5v11a1.5 1.5 0 0 1-1.5 1.5H12a2.496 2.496 0 0 1-2-1ZM3 4.5v11a.5.5 0 0 0 .5.5H8a1.5 1.5 0 0 0 1.5-1.5v-9A1.5 1.5 0 0 0 8 4H3.5a.5.5 0 0 0-.5.5Zm7.5 10A1.5 1.5 0 0 0 12 16h4.5a.5.5 0 0 0 .5-.5v-11a.5.5 0 0 0-.5-.5H12a1.5 1.5 0 0 0-1.5 1.5v9Z"/></svg>
